wp-content/uploads/2025/04/01.Reactions_1.svg

<svg width="72" height="72" viewBox="0 0 72 72" fill="none" xmlns="http://www.w3.org/2000/svg">
<g clip-path="url(#clip0_5302_17617)">
<rect width="72" height="72" rx="36" fill="#FC4C02"/>
<mask id="mask0_5302_17617" style="mask-type:luminance" maskUnits="userSpaceOnUse" x="0" y="0" width="72" height="72">
<path d="M72 0L0 0L0 72H72V0Z" fill="white"/>
</mask>
<g mask="url(#mask0_5302_17617)">
<path d="M12.8284 61.5788C11.5047 61.5788 10.4297 60.5038 10.4297 59.1801C10.4297 50.0588 16.7593 45.4299 17.032 45.2374C17.9867 44.5555 19.2943 44.6598 20.1206 45.4941L26.5144 51.8879C27.3407 52.7142 27.453 54.0218 26.7711 54.9765C26.5785 55.2492 21.9497 61.5788 12.8284 61.5788ZM59.1811 10.4287L48.0221 10.4287C42.222 10.4287 36.7187 12.8194 32.7236 16.8225H28.2392C24.3082 16.8225 20.618 18.7558 18.3798 21.9888L14.0477 28.2462C13.5423 28.9762 13.4782 29.9309 13.8953 30.7251C14.3125 31.5193 15.1307 32.0087 16.0212 32.0087H24.0355L22.046 36.108C21.0031 38.25 21.4363 40.8171 23.1209 42.5018L29.4987 48.8795C30.5736 49.9545 32.0016 50.5161 33.4617 50.5161C34.288 50.5161 35.1223 50.3316 35.9004 49.9545L39.9998 47.965V55.9792C39.9998 56.8697 40.4972 57.688 41.2834 58.1051C41.6364 58.2897 42.0134 58.3779 42.3985 58.3779C42.8798 58.3779 43.3531 58.2335 43.7623 57.9527L50.0197 53.6207C53.2526 51.3825 55.186 47.7002 55.186 43.7613V39.2768C59.1891 35.2817 61.5798 29.7785 61.5798 23.9783V12.8274C61.5798 11.5037 60.5048 10.4287 59.1811 10.4287ZM45.5914 32.8109C42.0696 32.8109 39.1976 29.9389 39.1976 26.4171C39.1976 22.8953 42.0696 20.0234 45.5914 20.0234C49.1131 20.0234 51.9851 22.8953 51.9851 26.4171C51.9851 29.9389 49.1131 32.8109 45.5914 32.8109Z" fill="white"/>
</g>
</g>
<defs>
<clipPath id="clip0_5302_17617">
<rect width="72" height="72" rx="36" fill="white"/>
</clipPath>
</defs>
</svg>

<svg xmlns="http://www.w3.org/2000/svg" width="72" height="72" fill="none"><g clip-path="url(#a)"><rect width="72" height="72" fill="#FC4C02" rx="36"/><mask id="b" width="72" height="72" x="0" y="0" maskUnits="userSpaceOnUse" style="mask-type:luminance"><path fill="#fff" d="M72 0H0v72h72z"/></mask><g mask="url(#b)"><path fill="#fff" d="M12.828 61.579a2.4 2.4 0 0 1-2.398-2.399c0-9.121 6.33-13.75 6.602-13.943a2.39 2.39 0 0 1 3.089.257l6.393 6.394a2.4 2.4 0 0 1 .257 3.089c-.193.272-4.821 6.602-13.943 6.602m46.353-51.15H48.022c-5.8 0-11.303 2.39-15.298 6.394h-4.485a12 12 0 0 0-9.86 5.166l-4.331 6.257a2.397 2.397 0 0 0 1.973 3.763h8.014l-1.989 4.099a5.585 5.585 0 0 0 1.075 6.394l6.378 6.377a5.59 5.59 0 0 0 3.963 1.637c.826 0 1.66-.184 2.438-.561l4.1-1.99v8.014c0 .89.497 1.709 1.283 2.126a2.404 2.404 0 0 0 2.479-.152l6.258-4.332a11.99 11.99 0 0 0 5.166-9.86v-4.484c4.003-3.995 6.394-9.498 6.394-15.299v-11.15a2.4 2.4 0 0 0-2.399-2.4M45.591 32.81c-3.521 0-6.393-2.872-6.393-6.394s2.872-6.394 6.393-6.394 6.394 2.872 6.394 6.394-2.872 6.394-6.394 6.394"/></g></g><defs><clipPath id="a"><rect width="72" height="72" fill="#fff" rx="36"/></clipPath></defs></svg>
